Sources/FrostedUI/Resources/Icons.xcassets/gear24.imageset/gear-24.svg

<svg width="24" height="24" viewBox="0 0 24 24" fill="none" xmlns="http://www.w3.org/2000/svg" data-fui-icon="true">
  <path
    d="M12.7461 1.875C14.0126 1.87504 15.0965 2.78479 15.3164 4.03223L15.4717 4.91504C15.8331 5.08574 16.1791 5.28224 16.5078 5.50195L17.4033 5.18066L17.6279 5.11133C18.7603 4.81392 19.977 5.2985 20.582 6.32227L21.3008 7.53906V7.54004C21.9491 8.63885 21.7022 10.0363 20.7129 10.8418L19.9922 11.4277C20.0068 11.6153 20.0166 11.8061 20.0166 12L20.0117 12.2539C20.0079 12.3608 20.0004 12.4665 19.9922 12.5713L20.7119 13.1582C21.7012 13.9637 21.9491 15.3612 21.3008 16.46V16.4609L20.582 17.6777C19.9368 18.7696 18.5957 19.2485 17.4033 18.8193L16.5078 18.4961C16.1791 18.7159 15.8331 18.9123 15.4717 19.083L15.3164 19.9678C15.0965 21.2152 14.0126 22.125 12.7461 22.125H11.2393C9.97285 22.1248 8.89006 21.2154 8.66992 19.9688L8.51367 19.084C8.1517 18.913 7.80487 18.7163 7.47559 18.4961L6.58301 18.8184V18.8193C5.39086 19.2485 4.04872 18.7701 3.40332 17.6777L3.40234 17.6768L2.68457 16.46L2.68555 16.459C2.03797 15.3609 2.28362 13.9649 3.27246 13.1592L3.99316 12.5713C3.98511 12.466 3.97734 12.36 3.97363 12.2529L3.96973 12C3.96973 11.8066 3.97782 11.6158 3.99219 11.4277L3.27246 10.8418V10.8408C2.28353 10.035 2.03677 8.6382 2.68457 7.54004L3.40332 6.32227C4.04872 5.2299 5.39086 4.75151 6.58301 5.18066L7.47656 5.50195C7.80559 5.28197 8.15196 5.0849 8.51367 4.91406L8.66992 4.03125C8.89006 2.78461 9.97285 1.87525 11.2393 1.875H12.7461ZM11.2393 3.375C10.701 3.37514 10.2402 3.76152 10.1465 4.29199V4.29297L9.9209 5.56934L9.84961 5.97559L9.4668 6.13281C8.95354 6.34331 8.4737 6.61608 8.03711 6.94141L7.71387 7.18164L7.33496 7.0459L6.0752 6.59277C5.55623 6.40592 4.97094 6.61753 4.69434 7.08594L3.97656 8.30176C3.70371 8.76411 3.80802 9.34238 4.21875 9.67773L5.25293 10.5186L5.57617 10.7822L5.52344 11.1963C5.48908 11.4625 5.46973 11.7306 5.46973 12C5.46973 12.2689 5.48912 12.5366 5.52344 12.8027L5.57617 13.2168L5.25293 13.4795L4.21973 14.3213C3.83393 14.6356 3.71753 15.1643 3.92969 15.6104L3.97656 15.6982L4.69336 16.9141H4.69434C4.95357 17.3531 5.48382 17.5672 5.97656 17.4385L6.0752 17.4072L7.33398 16.9541L7.71387 16.8174L8.03711 17.0576C8.47364 17.383 8.95339 17.6556 9.4668 17.8662L9.84961 18.0234L9.9209 18.4297L10.1465 19.707V19.708C10.2402 20.2385 10.701 20.6249 11.2393 20.625H12.7461C13.2847 20.625 13.7462 20.2382 13.8398 19.708L14.0645 18.4307L14.1357 18.0234L14.5186 17.8662C15.0319 17.6557 15.5116 17.383 15.9482 17.0576L16.2715 16.8174L16.6504 16.9531L17.9111 17.4072C18.4297 17.594 19.0142 17.3827 19.291 16.9141L20.0098 15.6973C20.282 15.235 20.1772 14.6576 19.7656 14.3223V14.3213L18.7324 13.4795L18.4092 13.2168L18.4619 12.8027C18.4965 12.5349 18.5166 12.2674 18.5166 12C18.5166 11.7321 18.4965 11.4642 18.4619 11.1963L18.4082 10.7822L18.7324 10.5186L19.7656 9.67773L19.8389 9.6123C20.1889 9.27069 20.2646 8.73534 20.0088 8.30176L19.291 7.08594C19.0314 6.64653 18.5013 6.43247 18.0088 6.56152L17.9111 6.59277L16.6504 7.0459L16.2715 7.18164L15.9482 6.94141C15.5115 6.61603 15.0317 6.34322 14.5186 6.13281L14.1357 5.97559L14.0645 5.56836L13.8398 4.29199C13.7462 3.76176 13.2847 3.37504 12.7461 3.375H11.2393ZM12 8.625C13.864 8.625 15.375 10.136 15.375 12C15.375 13.864 13.864 15.375 12 15.375C10.1361 15.375 8.625 13.8639 8.625 12C8.625 10.1361 10.1361 8.62504 12 8.625ZM12 10.125C10.9645 10.125 10.125 10.9645 10.125 12C10.125 13.0355 10.9645 13.875 12 13.875C13.0355 13.875 13.875 13.0355 13.875 12C13.875 10.9645 13.0355 10.125 12 10.125Z"
    fill="currentColor"
  />
</svg>

<svg xmlns="http://www.w3.org/2000/svg" width="24" height="24" fill="none" data-fui-icon="true" viewBox="0 0 24 24"><path fill="currentColor" d="M12.746 1.875c1.267 0 2.35.91 2.57 2.157l.156.883q.542.256 1.036.587l.895-.321.225-.07a2.655 2.655 0 0 1 2.954 1.211l.719 1.217v.001a2.565 2.565 0 0 1-.588 3.302l-.72.586q.023.28.024.572l-.005.254a8 8 0 0 1-.02.317l.72.587a2.566 2.566 0 0 1 .589 3.302l-.719 1.218a2.655 2.655 0 0 1-3.179 1.141l-.895-.323q-.494.33-1.036.587l-.156.885a2.61 2.61 0 0 1-2.57 2.157H11.24a2.61 2.61 0 0 1-2.57-2.156l-.155-.885a8 8 0 0 1-1.038-.588l-.893.322v.001a2.656 2.656 0 0 1-3.18-1.141v-.001l-.718-1.217v-.001a2.564 2.564 0 0 1 .587-3.3l.721-.588a8 8 0 0 1-.02-.318L3.97 12q0-.29.022-.572l-.72-.586v-.001a2.565 2.565 0 0 1-.587-3.301l.718-1.218a2.656 2.656 0 0 1 3.18-1.141l.894.32q.494-.33 1.037-.587l.156-.883a2.61 2.61 0 0 1 2.57-2.156zm-1.507 1.5c-.538 0-.999.387-1.093.917v.001l-.225 1.276-.071.407-.383.157c-.513.21-.993.483-1.43.808l-.323.24-.379-.135-1.26-.453a1.16 1.16 0 0 0-1.38.493l-.718 1.216a1.066 1.066 0 0 0 .242 1.376l1.034.84.323.264-.053.414A6 6 0 0 0 5.47 12q.002.404.053.803l.053.414-.323.262-1.033.842a1.065 1.065 0 0 0-.29 1.29l.047.087.716 1.216h.001c.26.44.79.653 1.283.524l.098-.03 1.259-.454.38-.137.323.24c.437.326.916.599 1.43.81l.383.156.07.407.226 1.277v.001c.094.53.555.917 1.093.917h1.507c.539 0 1-.387 1.094-.917l.225-1.277.07-.408.384-.157c.513-.21.993-.483 1.43-.808l.322-.24.38.135 1.26.454a1.156 1.156 0 0 0 1.38-.493l.719-1.217a1.065 1.065 0 0 0-.244-1.375l-1.034-.842-.323-.263.053-.414q.054-.402.055-.803-.001-.402-.055-.804l-.054-.414.324-.263 1.034-.841.073-.066c.35-.341.426-.877.17-1.31l-.718-1.216c-.26-.44-.79-.654-1.282-.524l-.098.03-1.26.454-.38.136-.323-.24a6.6 6.6 0 0 0-1.43-.81l-.382-.156-.071-.408-.225-1.276a1.11 1.11 0 0 0-1.094-.917zM12 8.625a3.375 3.375 0 1 1 0 6.75 3.375 3.375 0 0 1 0-6.75m0 1.5a1.875 1.875 0 1 0 0 3.75 1.875 1.875 0 0 0 0-3.75"/></svg>
